!!!!SEGMENT: pl-wnifc--6817-n--002_katski-antoni--grande-fantaisie-sur-l-opera-de-verdi-le-trovatore-op-157-miserere.krn
!!!cenid: 18xx:3903
!!!COM: Kątski, Antoni
!!!COM-rismID: pe30017994
!!!CDT: 1817-1899
!!!CNT:
!!!OPR: Grande fantaisie sur l’opera de Verdi Le Trovatore op. 157
!!!OTL: Miserere
!!!OMV: 002
!!!PDT:
!!!AGN:
!!!SMS-siglum: PL-Wnifc
!!!SMS-shelfmark: 6817/n
!!!SMS-shelfwork: 001-002 M
!!!SMS-variant:
!!!SMS-altvar:
!!!NIFC-rismSourceID: 1001159514
!!!NIFC-rismChildID: 1001159514
!!!NIFC-islandoraID: nifc:213680
!!!URL-pdf-islandora: https://repozytorium.nifc.pl/islandora/object/nifc%3A213680/datastream/PDF/view
!!!URL-scan: https://polish.musicsources.pl/pl/lokalizacje/galeria/druki-muzyczne/16936 @EN{Scan on Polish Music Sources Website} @PL{Skany w portalu Dziedzictwo Muzyki Polskiej w otwartym dostępie}
!!!ONB-nifc:
!!!AIN: 1 campn 2 piano
!!!key: A-
**kern	**dynam	**kern	**dynam	**kern	**dynam
*part3	*part3	*part2	*part2	*part1	*part1
*staff3	*	*staff2	*	*staff1	*
*I"La Clocke des Agonissants.	*	*I"Piano	*	*I"Miserere.	*
*Icampn	*	*Ipiano	*	*Ipiano	*
*ICidio	*	*ICklav	*	*ICklav	*
*clefF4	*	*clefF4	*	*clefG2	*
*k[b-e-a-d-]	*	*k[b-e-a-d-]	*	*k[b-e-a-d-]	*
*A-:	*	*A-:	*	*A-:	*
*M4/4	*	*M4/4	*	*M4/4	*
*met(c)	*	*met(c)	*	*met(c)	*
=1	=1	=1	=1	=1	=1
!	!	!	!	!LO:TX:a:B:t=Lagrghetto.	!
!	!LO:DY:a	!	!	!LO:TX:a:B:t=Larghetto	!
2.CCC/ 2.DDD-X 2.EEE-X 2.EEEn	p	1r	.	1r	.
4CCC/ 4DDD- 4EEE-X 4EEEn	.	.	.	.	.
*	*	*	*	*clefF4	*
=2	=2	=2	=2	=2	=2
2CCC/ 2DDD-X 2EEE-X 2EEEn	.	2r	.	2r	.
2CCC^/ 2DDD- 2EEE 2EEE	.	4r	.	4ryy	.
.	.	4AA-/	.	4E-\ 4A- 4c-X 4e-	pp
=3	=3	=3	=3	=3	=3
!	!	!	!	!LO:TX:b:t=il eanto ben tenuto.	!
2.CCC^/ 2.DDD-X 2.EEE-X 2.EEEn	.	4.AA-/	.	4.E-\ 4.A- 4.c-X 4.e-	.
.	.	8AA-/	.	8E-\ 8A- 8c- 8e-	.
.	.	8.AA-/L	.	8.E-\L 8.A- 8.c- 8.e-	.
.	.	16AA-/K	.	16E-\K 16A- 16c- 16e-	.
4ryy	.	8.AA-/	.	8.E-\ 8.A- 8.c- 8.e-	.
.	.	16AA-/Jk	.	16E-\Jk 16A- 16c- 16e-	.
=4	=4	=4	=4	=4	=4
4r	.	2AA-/	.	2E-\ 2A- 2c-X 2e-	.
[2.CCC^>/ [2.DDD-X [<2.EEE-X [<2.EEEn	.	.	.	.	.
.	.	4AA-/	.	4E-\ 4A- 4c- 4e-	.
.	.	4AA-/	.	4E-\ 4A- 4c- 4e-	.
!LO:PB:g=original	!	!LO:PB:g=original	!	!LO:PB:g=original	!
=5	=5	=5	=5	=5	=5
2.CCC/] 2.DDD-X] 2.EEE-X] 2.EEE]	.	8.GG-X/L	.	8.E-\L 8.G-X 8.c-X 8.e-	<
.	.	16GG-/K	.	16E-\K 16G- 16c- 16e-	.
.	.	8.GG-/	.	8.E-\ 8.G- 8.c- 8.e-	.
.	.	16GG-/Jk	.	16E-\Jk 16G- 16c- 16e-	.
.	.	4.GG-/	.	4.F-X\ 4.G- 4.B- 4.d- 4.f-X	[
[4CCC/ [4DDD- 4EEE-X [4EEE-	.	.	.	.	.
.	.	8GG-/	.	8F-\ 8G- 8B- 8d- 8f-	.
=6	=6	=6	=6	=6	=6
2CCC/] 2DDD-X] 2EEE-X] 2EEEn	.	2CC-X/ 2C-X	.	2E-\ 2G-X 2c-X 2e-	>
4ryy	.	4GG-X/ 4D-	.	4G-\ 4B- 4d-	.
4r	.	4GG-/ 4D-	.	4G-\ 4B- 4d-	]]
=7	=7	=7	=7	=7	=7
4r	.	4.GG-X/ 4.D-	.	4.G-X\ 4.B- 4.d-	<
2.CCC^/ 2.DDD-X 2.EEE-X 2.EEEn	.	.	.	.	.
.	.	8GG-/ 8D-	.	8G-\ 8B- 8d-	.
.	.	8.DD-/L 8.D-	.	8.F-X\L 8.A- 8.d- 8.f-X	.
.	.	16DD-/K 16D-	.	16F-\K 16A- 16d- 16f-	.
.	.	8.DD-/ 8.D-	.	8.F-\ 8.A- 8.d- 8.f-	.
.	.	16DD-/Jk 16D-	.	16F-\Jk 16A- 16d- 16f-	[[
=8	=8	=8	=8	=8	=8
4r	.	4.EE-/ 4.E-	.	4.Gn\ 4.B- 4.e-	.
2.CCC/ 2.DDD-X 2.EEE-X 2.EEEn	.	.	.	.	.
.	.	8E-\	.	8G\ 8B- 8d-	.
.	.	8.F-X\L	.	8.A-\L 8.c-X	.
.	.	16F-\K	.	16A-\K 16c-	.
.	.	8.F-\	.	8.A-\ 8.c-	.
.	.	16F-\Jk	.	16A-\Jk 16c-	.
!LO:LB:g=original	!	!LO:LB:g=original	!	!LO:LB:g=original	!
=9	=9	=9	=9	=9	=9
*	*	*	*	*clefG2	*
4r	.	2E-\	.	2ff\ 2aa-X 2ccc	.
2.CCC/ 2.DDD-X 2.EEE-X 2.EEEn	.	.	.	.	.
.	.	8.E-\L	.	8.ff\L 8.aa- 8.ccc	>
.	.	16E-\K	.	16ff\K 16aa- 16ccc	.
.	.	8.E-\	.	8.ff\ 8.aa- 8.ccc	.
.	.	16E-\Jk	.	16ff\Jk 16aa- 16ccc	]]
=10	=10	=10	=10	=10	=10
*	*	*	*	*Xtuplet	*
4r	.	2EE-/ 2E-	.	3A-/	.
2.CCC/ 2.DDD- 2.EEE-X 2.EEEn	.	.	.	.	.
.	.	.	.	3B-/ 3e-	.
.	.	2EE-/ 2E-	.	.	.
.	.	.	.	3G/	.
=11	=11	=11	=11	=11	=11
*	*	*Xtuplet	*	*	*
4r	.	(8.AA-\L 8.E-	p	4A-/ 4c-X 4e-	.
.	.	48AA-\LL 48E-	.	.	.
.	.	48A-\	.	.	.
.	.	48c-X\JJJ	.	.	.
8r	.	8.AA-\L) 8.E-	.	4r	.
2CCC/ 2DDD- 2EEE-X 2EEEn	.	.	.	.	.
.	.	(48AA-\LL 48E-	.	.	.
.	.	48A-\	.	.	.
.	.	48c-\JJJ	.	.	.
.	.	8.AA-\L) 8.E-	.	8.r	.
.	.	(48AA-\LL 48E-	.	16a-/	.
.	.	48A-\	.	.	.
.	.	48c-\JJJ	.	.	.
!	!	!	!	!LO:TX:a:i:t=energico	!
.	.	8.AA-\L) 8.E-	.	(8.a-^\L	.
8r	.	.	.	.	.
.	.	(48AA-\LL 48E-	.	32b-\LL	.
.	.	48A-\	.	.	.
.	.	.	.	32cc-X\JJJ)	.
.	.	48c-\JJJ	.	.	.
=12	=12	=12	=12	=12	=12
4r	.	8.AA-\L) 8.E-	.	8.e-^/L	.
.	.	(48AA-\LL 48E-	.	16f-X/Jk	.
.	.	48A-\	.	.	.
.	.	48c-X\JJJ	.	.	.
8r	.	8.AA-\L) 8.E-	.	4e-^/	.
2CCC/ 2DDD- 2EEE-X 2EEEn	.	.	.	.	.
.	.	(48AA-\LL 48E-	.	.	.
.	.	48A-\	.	.	.
.	.	48c-\JJJ	.	.	.
.	.	8.AA-\L) 8.E-	.	8.r	.
.	.	(48AA-\LL 48E-	.	16a-/	.
.	.	48A-\	.	.	.
.	.	48c-\JJJ	.	.	.
.	.	8.AA-\L) 8.E-	.	(8.a-^\L	.
8r	.	.	.	.	.
.	.	(48AA-\LL 48E-	.	32b-\LL	.
.	.	48A-\	.	.	.
.	.	.	.	32cc-X\JJJ)	.
.	.	48c-\JJJ	.	.	.
!LO:LB:g=original	!	!LO:LB:g=original	!	!LO:LB:g=original	!
=13	=13	=13	=13	=13	=13
4r	.	8.AA-\L) 8.E-	.	8.e-^/L	.
.	.	48AA-\LL 48E-	.	16f-X/Jk	.
.	.	(48A-\	.	.	.
.	.	48c-X\JJJ	.	.	.
8r	.	8.AA-\L) 8.E-	.	4e-^/	.
2CCC/ 2DDD- 2EEE-X 2EEEn	.	.	.	.	.
.	.	(48AA-\LL 48E-	.	.	.
.	.	48A-\	.	.	.
.	.	48c-\JJJ	.	.	.
.	.	8.AA-\L) 8.E-	.	8.r	.
.	.	(48AA-\LL 48E-	.	16a-/	.
.	.	48A-\	.	.	.
.	.	48c-\JJJ	.	.	.
.	.	8.AA-\L) 8.E-	.	(8.a-\L	<
8r	.	.	.	.	.
.	.	48AA-\LL 48E-	.	32b-\LL	.
.	.	48A-\	.	.	.
.	.	.	.	32cc-X\JJJ)	[[
.	.	48c-\JJJ	.	.	.
=14	=14	=14	=14	=14	=14
4r	.	8.BB-\L 8.E-	.	4dd-\	f
.	.	48BB-\LL 48E-	.	.	.
.	.	48G\	.	.	.
.	.	48d-\JJJ	.	.	.
8r	.	8.BB-\L 8.E-	.	4g/	.
2CCC/ 2DDD- 2EEE-X 2EEEn	.	.	.	.	.
.	.	48BB-\LL 48E-	.	.	.
.	.	48G\	.	.	.
.	.	48d-\JJJ	.	.	.
.	.	8.Dn^^\L 8.F	.	8.r	.
.	.	48D\LL 48F	.	16a-/	.
.	.	48A-\	.	.	.
.	.	48c-X\JJJ	.	.	.
.	.	8.D^^\L 8.F	.	(8.a-\L	.
8r	.	.	.	.	.
.	.	48D\LL 48F	.	32b-\LL	.
.	.	48A-\	.	.	.
.	.	.	.	32cc-X\JJJ)	.
.	.	48c-\JJJ	.	.	.
=15	=15	=15	=15	=15	=15
2r	.	8.E-\L 8.G	.	4b-/	.
.	.	32E-\LL 32G	.	.	.
.	.	32B-\JJJ	.	.	.
.	.	8.E-\L 8.G	.	4e-/	.
.	.	32E-\LL 32G	.	.	.
.	.	32B-\JJJ	.	.	.
16r	.	8.r	.	8.An<^^/L 8.c< 8.e-< 8.g-X<	ff
4CCC/ 4DDD- 4EEE-X 4EEEn	f	.	.	.	.
.	.	32C\LLL 32E- 32G-X	.	16ee-\Jk	.
.	.	32B--\JJJ	.	.	.
.	.	8.C\L 8.E- 8.G-	.	(8.ee-\L	.
8.ryy	.	.	.	.	.
.	.	32C\LL 32E- 32G-	.	32ff-X\LL	.
.	.	32B--\JJJ	.	32gg-X\JJJ)	.
!LO:LB:g=original	!	!LO:LB:g=original	!	!LO:LB:g=original	!
=16	=16	=16	=16	=16	=16
2r	.	8.D-\L 8.F-X	.	8.dd-^^\L	.
.	.	32D-\LL 32F-	.	16ee-\Jk	.
.	.	32A-\JJJ	.	.	.
.	.	8.D-\L 8.F-	.	4dd-^^\	.
.	.	32D-\LL 32F-	.	.	.
.	.	32A-\JJJ	.	.	.
16r	.	8.r	.	8.G<^^/L 8.B-< 8.d-< 8.f-X<	.
4.CCC/ 4.DDD- 4.EEE-X 4.EEE-	f	.	.	.	.
.	.	32GG\LLL 32BB- 32D-	.	16dd-\Jk	.
.	.	32F-\JJJ	.	.	.
!	!	!	!	!LO:TX:b:t=accel.	!
.	.	8.GG\L 8.BB- 8.D-	.	(8.dd-^^\L	.
16ryy	.	32GG\LL 32BB- 32D-	.	32ee-\LL	.
.	.	32F-\JJJ	.	32ff-X\JJJ)	.
=17	=17	=17	=17	=17	=17
1r	.	(32AA-^^</LLL 32C-X	.	(8.cc-X^^\L	.
.	.	32E-/	.	.	.
.	.	32AA-/ 32C-	.	.	.
.	.	32E-/JJ	.	.	.
.	.	8AA-/J)	.	.	.
.	.	.	.	32dd-\LL	.
.	.	.	.	32ee-\JJJ)	.
.	.	(32FF-X^^</LLL 32AA-	.	(8.a-^^\L	.
.	.	32C-/	.	.	.
.	.	32FF-/ 32AA-	.	.	.
.	.	32C-/JJ	.	.	.
.	.	8FF-/J) 8AA-	.	.	.
.	.	.	.	32b-\LL	.
.	.	.	.	32cc-\JJJ)	.
.	.	(32DD-^^</LLL 32FF-	.	(8.f-X^^</L	.
.	.	32AA-/	.	.	.
.	.	32DD-/ 32FF-	.	.	.
.	.	32AA-/JJ	.	.	.
.	.	8DD-/J) 8FF-	.	.	.
.	.	.	.	32g-X/LL	.
.	.	.	.	32a-/JJJ)	.
.	.	(32BBB-^^</LLL 32DD-	.	(8.d-^^</L	.
.	.	32FF-/	.	.	.
.	.	32BBB-/ 32DD-	.	.	.
.	.	32FF-/JJ	.	.	.
.	.	8BBB-/J) 8DD-	.	.	.
.	.	.	.	32e-/LL	.
.	.	.	.	32f-/JJJ)	.
=18	=18	=18	=18	=18	=18
4r	.	8.EE-\L	.	16e-\LL	.
.	.	.	.	(16ff-X\J	.
.	.	.	.	8ee-\J)	.
.	.	16E-\Jk	.	.	.
8r	.	8.An^^\L 8.c 8.g-X	.	16r	.
.	.	.	.	(16ff-\KL	.
2CCC/ 2DDD- 2EEE-X 2EEEn	.	.	.	8ee-\J)	.
.	.	16E-\Jk	.	.	.
.	.	8.A-X^^\L 8.c-X 8.f	.	16r	.
.	.	.	.	(16ee-\KL	.
.	.	.	.	8ddn\J)	.
.	.	16E-\Jk	.	.	.
.	.	8.Gn^^\L 8.B- 8.f-X	.	16r	.
.	.	.	.	(16ee-\KL	.
8r	.	.	.	8dd-X\J)	.
.	.	16E-\Jk	.	.	.
!LO:LB:g=original	!	!LO:LB:g=original	!	!LO:LB:g=original	!
=19	=19	=19	=19	=19	=19
8r	.	8.G-X^^\L 8.B-- 8.e-	.	16r	.
.	.	.	.	(16dd-\KL	.
2CCC/ 2DDD- 2EEE-X 2EEEn	.	.	.	8cc\J)	.
.	.	16E-\Jk	.	.	.
.	.	8.F^^\L 8.A- 8.e--	.	16r	.
!	!	!	!	!LO:TX:a:i:t=rall.	!
.	.	.	.	(16dd-\KL	.
.	.	.	.	8cc-X\J)	.
.	.	16Dn\Jk	.	.	.
.	.	8.F-X^^\L 8.A- 8.d-	.	16r	.
.	.	.	.	(16cc-\KL	.
4ryy	.	.	.	8b-\J)	.
.	.	16E-\Jk	.	.	.
.	.	8.E-^^\L 8.Gn 8.d-	.	16r	.
.	.	.	.	16qqb-/LL	.
.	.	.	.	16qqdd-/JJ	.
.	.	.	.	16cc-;\KL	.
8r;	.	.	.	8b-\J	.
.	.	16E-;\Jk	.	.	.
==20	==20	==20	==20	==20	==20
*M12/8	*	*M12/8	*	*M12/8	*
*	*	*	*	*^	*
1.r	.	8AAA-\L 8AA-	.	8a-/	4.e-\	ff
.	.	8E-\ 8A- 8c	.	8r	.	.
.	.	8E-\J 8A- 8c	.	8r	.	.
!	!	!	!	!LO:TX:b:t=con molto espress.	!	!
.	.	8C\L	.	4r	[>4.e-^^>\	.
.	.	8E-\ 8A- 8c	.	.	.	.
.	.	8E-\J 8A- 8c	.	8r	.	.
.	.	8BB-\L	.	2.ryy	8e-\L]	.
.	.	8E-\ 8G 8B-	.	.	8d-^^\	.
.	.	8E-\J 8G 8B-	.	.	8e-^^\J	.
.	.	.	.	.	8qg/	.
.	.	8EE-\L	.	.	4f^^\	.
.	.	8E-\ 8G 8B-	.	.	.	.
.	.	8E-\J 8G 8B-	.	.	8e-^^\	.
*	*	*	*	*v	*v	*
=21	=21	=21	=21	=21	=21
*	*	*^	*	*	*
!	!	!	!	!	!	!LO:DY:a
1.r	.	4c^^/	8AA-\L 8C 8A-	.	4.eee-\	pp
.	.	.	8E-\ 8A-	.	.	.
.	.	8d-^^/	8E-\J 8A-	.	.	.
.	.	[4.e-^^/	8C\L 8E- 8A-	.	[4.eee-\	.
.	.	.	8E-\ 8A-	.	.	.
.	.	.	8E-\J 8A-	.	.	.
.	.	4.e-/]	8BB-\L	.	8eee-\L]	.
.	.	.	8E-\ 8G 8d-	.	8ddd-\	.
.	.	.	8E-\J 8G 8d-	.	8eee-\J	.
.	.	.	.	.	8qggg/	.
.	.	4r	8EE-\L	.	4fff\	.
.	.	.	8E-\ 8G 8d-	.	.	.
.	.	8r	8E-\J 8G 8d-	.	8eee-\	.
!LO:LB:g=original	!	!	!LO:LB:g=original	!	!	!LO:LB:g=original
=22	=22	=22	=22	=22	=22	=22
*	*	*	*	*	*^	*
4r	.	4.e-/	8AA-\L	.	(4ccc\	4.ryy	.
.	.	.	8E-\ 8A- 8c	.	.	.	.
8r	.	.	8E-\J 8A- 8c	.	8ddd-\	.	ff
2.CCC/ 2.DDD- 2.EEE-X 2.EEEn	.	2.ryy	8r	.	4eee-:\)	4e-^^<:\	.
.	.	.	8E-\L 8A- 8c	.	.	.	.
.	.	.	8E-\J 8A- 8c	.	8r	2.ryy	.
.	.	.	8BB-\L	.	8e-^^</L	.	.
.	.	.	8E-\ 8G 8d-	.	8dn^^</	.	.
.	.	.	8E-\J 8G 8d-	.	8e-^^/J	.	.
.	.	.	.	.	8qg/	.	ff
4r	.	4.ryy	8EE-\L	.	4f^^</	.	.
.	.	.	8E-\ 8G 8d-	.	.	.	.
8r	.	.	8E-\J 8G 8d-	.	8e-^^</	8ryy	.
*	*	*v	*v	*	*	*	*
=23	=23	=23	=23	=23	=23	=23
!	!	!	!	!LO:TX:t=P:problem:LO:N:Vis=2	!	!
1.r	.	8AA-\L	.	2.r	4c^^\	.
.	.	8E-\ 8A-	.	.	.	.
.	.	8E-\J 8A-	.	.	8d-^^\	.
.	.	8E-\L 8A-	.	.	4.c^^\	fff
.	.	8E-\ 8A-	.	.	.	.
.	.	8E-\J 8A-	.	.	.	.
.	.	8FF\L	.	8r	4.a-^^\	.
.	.	8F\ 8A-	.	8cc/L 8ff	.	.
.	.	8A-\J 8c	.	8ff/J 8aa-	.	.
.	.	8f^^\L 8a->	.	8aa-/L 8ccc	4.ryy	.
.	.	8c\ 8f	.	8ff/ 8aa-	.	.
.	.	8A-\J 8c 8a->	.	8cc/J 8ff	.	.
=24	=24	=24	=24	=24	=24	=24
4r	.	8CC\L 8C	.	8r	2.g^^\	.
.	.	8G\ 8c 8e-	.	8cc/L 8ee-	.	.
8r	.	8G\J 8c 8e-	.	8ee-/J 8gg	.	.
2.CCC/ 2.DDD- 2.EEE-X 2.EEEn	.	8r	.	8gg/L 8ccc	.	.
.	.	8G\L 8c 8e-	.	8ee-/ 8gg	.	.
.	.	8G\J 8c 8e-	.	8cc/J 8ee-	.	.
.	.	8DD-\L	.	8r	8f^^\	.
.	.	8F^^\ 8A- 8d-> 8f	.	8dd-/L 8ff	2ryy	.
.	.	8F^^\J 8A- 8d-> 8f	.	8ff/J 8aa-	.	.
4r	.	8F^^\L 8A- 8d-> 8f	.	8aa-/L 8ddd-	.	.
.	.	8F^^\ 8A- 8d-> 8f	.	8ff/ 8aa-	.	.
8r	.	8F^^\J 8A- 8d-> 8f	.	8dd-/J 8ff	8ryy	.
!LO:PB:g=original	!	!LO:PB:g=original	!	!	!LO:PB:g=original	!
=25	=25	=25	=25	=25	=25	=25
2r	.	8AAA-\L 8AA-	.	8r	4e-^^>\	.
.	.	8E-\ 8A-	.	8cc/L 8ee-	.	.
.	.	8A-\J 8c	.	8ee-/J 8aa-	8ryy	.
.	.	8c\L 8e-	.	8aa-/L 8ccc	4e-\	.
4ryy	.	8A-\ 8c	.	8ee-/ 8aa-	.	.
.	.	8E-^^\J 8A- 8c>	.	8cc/J 8ee-	8ryy	.
2CCC/ 2DDD- 2EEE-X 2EEEn	.	8r	.	8r	[>4.e-^^>\	.
.	.	8EE-\L	.	8dd-/L 8gg	.	.
.	.	8E-\J 8G	.	8gg/J 8bb-	.	.
.	.	8G\L 8B-	.	8bb-/L 8ddd-	4e-\]	.
4ryy	.	8E-\ 8G	.	8gg/ 8bb-	.	.
.	.	8E-^^\J 8G 8d->	.	8dd-/J 8gg	8ryy	.
*	*	*	*	*v	*v	*
=26	=26	=26	=26	=26	=26
2r	.	16AAA-/LL 16EE-	.	4.aa-\ 4.aaa-	fff
.	.	16AA-/ 16C-X	.	.	.
.	.	16AAA-/ 16EE-	.	.	.
.	.	16AA-/ 16C-	.	.	.
.	.	16AAA-/ 16EE-	.	.	.
.	.	16AA-/JJ 16C-	.	.	.
.	.	16AAA-/LL 16EE-	.	4ee-\ 4eee-	.
.	.	16AA-/ 16C-	.	.	.
4.ryy	.	16AAA-/ 16EE-	.	.	.
.	.	16AA-/ 16C-	.	.	.
.	.	16AAA-/ 16EE-	.	16r	.
.	.	16AA-/JJ 16C-	.	16cc-X\ 16ccc-X	.
.	.	16AAA-/LL 16EE-	.	16b-\LL 16bb-	.
.	.	16AA-/JJ 16C-	.	16a-\JJ 16aa-	.
4r	.	8r	.	8r	.
.	.	8r	.	8r	pp
8r	.	4r	.	4r	.
4CCC/ 4DDD- 4EEE-X 4EEEn	.	.	.	.	.
.	.	8AA-/	.	8E-/ 8A- 8c-X 8e-	.
!LO:LB:g=original	!	!LO:LB:g=original	!	!LO:LB:g=original	!
*	*	*	*	*clefF4	*
=27	=27	=27	=27	=27	=27
*M4/4	*	*M4/4	*	*M4/4	*
*met(c)	*	*met(c)	*	*met(c)	*
!	!	!	!	!LO:TX:b:t=il eanto ben tenuto.	!
2CCC-X^>/ 2DDD- 2EEE-X 2EEEn	.	4.AA-/	.	4.E-\ 4.A- 4.c-X 4.e-	.
.	.	8AA-/	.	8E-\ 8A- 8c- 8e-	.
2ryy	.	8.AA-/L	.	8.E-\L 8.A- 8.c- 8.e-	.
.	.	16AA-/K	.	16E-\K 16A- 16c- 16e-	.
.	.	8.AA-/	.	8.E-\ 8.A- 8.c- 8.e-	.
.	.	16AA-/Jk	.	16E-\Jk 16A- 16c- 16e-	.
=28	=28	=28	=28	=28	=28
4ryy	.	2AA-/	.	2E-\ 2A- 2c-X 2e-	.
[2CCC^/ [2DDD-X [2EEE-X [2EEEn	.	.	.	.	.
.	.	4AA-/	.	4E-\ 4A- 4c- 4e-	.
4ryy	.	4AA-/	.	4E-\ 4A- 4c- 4e-	.
=29	=29	=29	=29	=29	=29
2.CCC/] 2.DDD-X] 2.EEE-X] 2.EEEn]	.	8.GG-X/L	.	8.E-\L 8.G-X 8.c-X 8.e-	.
.	.	16GG-/K	.	16E-\K 16G- 16c- 16e-	.
.	.	8.GG-/	.	8.E-\ 8.G- 8.c- 8.e-	.
.	.	16GG-/Jk	.	16E-\Jk 16G- 16c- 16e-	.
.	.	4.GG-/	.	4.F-X\ 4.G- 4.B- 4.d- 4.g-X	.
[4CCC^/ [4DDD- [4EEE-X [4EEEn	.	.	.	.	.
.	.	8GG-/	.	8F-\ 8G- 8B- 8d- 8g-	.
=30	=30	=30	=30	=30	=30
2CCC/] 2DDD-X] 2EEE-X] 2EEEn]	.	2CC-X/ 2C-X	.	2E-\ 2G-X 2c-X 2e-	.
2ryy	.	4GG-X/ 4D-	.	4G-\ 4B- 4d-	.
.	.	4GG-/ 4D-	.	4G-\ 4B- 4d-	.
!LO:LB:g=original	!	!LO:LB:g=original	!	!LO:LB:g=original	!
=31	=31	=31	=31	=31	=31
4r	.	4.GG-X/ 4.D-	.	4.G-X\ 4.B- 4.d-	.
2CCC^>/ 2DDD-X 2EEE-X 2EEEn	.	.	.	.	.
.	.	8GG-/ 8D-	.	8G-\ 8B- 8d-	.
.	.	8.DD-/L 8.D-	.	8.F-X\L 8.A- 8.d- 8.f-X	.
.	.	16DD-/K 16D-	.	16F-\K 16A- 16d- 16f-	.
4ryy	.	8.DD-/ 8.D-	.	8.F-\ 8.A- 8.d- 8.f-	.
.	.	16DD-/Jk 16D-	.	16F-\Jk 16A- 16d- 16f-	.
=32	=32	=32	=32	=32	=32
4r	.	4.EE-/ 4.E-	.	4.Gn\ 4.B- 4.e-	.
2.CCC/ 2.DDD-X 2.EEE-X 2.EEEn	.	.	.	.	.
.	.	8E-\	.	8G\ 8B- 8d-	.
.	.	8.F-X\L	.	8.A-\L 8.c-X	.
.	.	16F-\K	.	16A-\K 16c-	.
.	.	8.F-\	.	8.A-\ 8.c-	.
.	.	16F-\Jk	.	16A-\Jk 16B- 16d-	.
=33	=33	=33	=33	=33	=33
4r	.	2E-\	.	2A-\ 2c-X 2e-	.
2.CCC/ 2.DDD-X 2.EEE-X 2.EEEn	.	.	.	.	.
.	.	8.E-\L	.	8.A-\L 8.c- 8.e-	.
.	.	16E-\K	.	16A-\K 16c- 16e-	.
.	.	8.E-\	.	8.A-\ 8.c- 8.e-	.
.	.	16E-\Jk	.	16A-\Jk 16c- 16e-	.
=34	=34	=34	=34	=34	=34
*	*	*	*	*^	*
4r	.	2EE-/ 2E-	.	2EE-/	1DD- 1FF 1GG	.
2.CCC/ 2.DDD- 2.EEE-X 2.EEEn	.	.	.	.	.	.
.	.	2EE-/ 2E-	.	2BBB-/	.	.
!LO:LB:g=original	!	!LO:LB:g=original	!	!LO:LB:g=original	!	!
*	*	*	*	*v	*v	*
*	*	*	*	*clefG2	*
=35	=35	=35	=35	=35	=35
4r	.	8.AA-\L 8.E-	.	4A-/ 4c-X 4e-	.
.	.	(48AA-\LL 48E-	.	.	.
.	.	48A-\	.	.	.
.	.	48c-X\JJJ	.	.	.
8r	.	8.AA-\L) 8.E-	.	4r	.
2CCC/ 2DDD- 2EEE-X 2EEEn	.	.	.	.	.
.	.	(48AA-\LL 48E-	.	.	.
.	.	48A-\	.	.	.
.	.	48c-\JJJ	.	.	.
.	.	8.AA-\L) 8.E-	.	8.r	.
.	.	(48AA-\LL 48E-	.	16a-/	.
.	.	48A-\	.	.	.
.	.	48c-\JJJ	.	.	.
.	.	8.AA-\L) 8.E-	.	(8.a-^\L	.
8r	.	.	.	.	.
.	.	(48AA-\LL 48E-	.	32b-\LL	.
.	.	48A-\	.	.	.
.	.	.	.	32cc-X\JJJ)	.
.	.	48c-\JJJ	.	.	.
=36	=36	=36	=36	=36	=36
4r	.	8.AA-\L) 8.E-	.	8.e-^/L	.
.	.	(48AA-\LL 48E-	.	16f-X/Jk	.
.	.	48A-\	.	.	.
.	.	48c-X\JJJ	.	.	.
8r	.	8.AA-\L) 8.E-	.	4e-/	.
2CCC/ 2DDD- 2EEE-X 2EEEn	.	.	.	.	.
.	.	(48AA-\LL 48E-	.	.	.
.	.	48A-\	.	.	.
.	.	48c-\JJJ	.	.	.
.	.	8.AA-\L) 8.E-	.	8.r	.
.	.	(48AA-\LL 48E-	.	16a-/	.
.	.	48A-\	.	.	.
.	.	48c-\JJJ	.	.	.
.	.	8.AA-\L) 8.E-	.	(8.a-^\L	.
8r	.	.	.	.	.
.	.	(48AA-\LL 48E-	.	32b-\LL	.
.	.	48A-\	.	.	.
.	.	.	.	32cc-X\JJJ)	.
.	.	48c-\JJJ	.	.	.
=37	=37	=37	=37	=37	=37
4r	.	8.AA-\L) 8.E-	.	8.e-^/L	.
.	.	48AA-\LL 48E-	.	16f-X/Jk	.
.	.	(48A-\	.	.	.
.	.	48c-X\JJJ	.	.	.
8r	.	8.AA-\L) 8.E-	.	4e-^/	.
2CCC/ 2DDD- 2EEE-X 2EEEn	.	.	.	.	.
.	.	(48AA-\LL 48E-	.	.	.
.	.	48A-\	.	.	.
.	.	48c-\JJJ	.	.	.
.	.	8.AA-\L) 8.E-	.	8.r	.
.	.	(48AA-\LL 48E-	.	16a-/	.
.	.	48A-\	.	.	.
.	.	48c-\JJJ	.	.	.
.	.	8.AA-\L) 8.E-	.	(8.a-\L	<
8r	.	.	.	.	.
.	.	48AA-\LL 48E-	.	32b-\LL	.
.	.	48A-\	.	.	.
.	.	.	.	32cc-X\JJJ)	[[
.	.	48c-\JJJ	.	.	.
!LO:LB:g=original	!	!LO:LB:g=original	!	!LO:LB:g=original	!
=38	=38	=38	=38	=38	=38
4r	.	8.BB-\L 8.E-	.	4dd-\	f
.	.	48BB-\LL 48E-	.	.	.
.	.	48G\	.	.	.
.	.	48d-\JJJ	.	.	.
8r	.	8.BB-\L 8.E-	.	4g/	.
2CCC/ 2DDD- 2EEE-X 2EEEn	.	.	.	.	.
.	.	48BB-\LL 48E-	.	.	.
.	.	48G\	.	.	.
.	.	48d-\JJJ	.	.	.
.	.	8.Dn^^\L 8.F	.	8.r	.
.	.	48D\LL 48F	.	16a-/	.
.	.	48A-\	.	.	.
.	.	48c-X\JJJ	.	.	.
.	.	8.D^^\L 8.F	.	(8.a-\L	.
8r	.	.	.	.	.
.	.	48D\LL 48F	.	32b-\LL	.
.	.	48A-\	.	.	.
.	.	.	.	32cc-X\JJJ)	.
.	.	48c-\JJJ	.	.	.
=39	=39	=39	=39	=39	=39
2r	.	8.E-\L 8.G	.	4b-/	.
.	.	32E-\LL 32G	.	.	.
.	.	32B-\JJJ	.	.	.
.	.	8.E-\L 8.G	.	4e-/	.
.	.	32E-\LL 32G	.	.	.
.	.	32B-\JJJ	.	.	.
16r	.	8.r	.	8.An<^^/L 8.c< 8.e-< 8.g-X<	ff
4CCC/ 4DDD- 4EEE-X 4EEEn	f	.	.	.	.
.	.	32C\LLL 32E- 32G-X	.	16ee-\Jk	.
.	.	32B--\JJJ	.	.	.
.	.	8.C\L 8.E- 8.G-	.	(8.ee-^^\L	.
8.ryy	.	.	.	.	.
.	.	32C\LL 32E- 32G-	.	32ff-X\LL	.
.	.	32B--\JJJ	.	32gg-X\JJJ)	.
=40	=40	=40	=40	=40	=40
2r	.	8.D-\L 8.F-X	.	8.dd-^^\L	.
.	.	32D-\LL 32F-	.	16ee-\Jk	.
.	.	32A-\JJJ	.	.	.
.	.	8.D-\L 8.F-	.	4dd-^^\	.
.	.	32D-\LL 32F-	.	.	.
.	.	32A-\JJJ	.	.	.
16r	.	8.r	.	8.G<^^/L 8.B-< 8.d-< 8.f-X<	.
4..CCC/ 4..DDD- 4..EEE-X 4..EEE-	f	.	.	.	.
.	.	32GG\LLL 32BB- 32D-	.	16dd-\Jk	.
.	.	32F-\JJJ	.	.	.
.	.	8.GG\L 8.BB- 8.D-	.	(8.dd-^^\L	.
.	.	32GG\LL 32BB- 32D-	.	32ee-\LL	.
.	.	32F-\JJJ	.	32ff-X\JJJ)	.
!LO:LB:g=original	!	!LO:LB:g=original	!	!LO:LB:g=original	!
=41	=41	=41	=41	=41	=41
1r	.	32AA-^^</LLL 32C-X	.	(8.cc-X^^\L	.
.	.	32E-/	.	.	.
.	.	32AA-/ 32C-	.	.	.
.	.	32E-/JJ	.	.	.
.	.	8AA-/J	.	.	.
.	.	.	.	32dd-\LL	.
.	.	.	.	32ee-\JJJ)	.
.	.	(32FF-X^^</LLL 32AA-	.	(8.a-^^\L	.
.	.	32C-/	.	.	.
.	.	32FF-/ 32AA-	.	.	.
.	.	32C-/JJ	.	.	.
.	.	8FF-/J) 8AA-	.	.	.
.	.	.	.	32b-\LL	.
.	.	.	.	32cc-\JJJ)	.
.	.	(32DD-^^</LLL 32FF-	.	(8.f-X^^/L	.
.	.	32AA-/	.	.	.
.	.	32DD-/ 32FF-	.	.	.
.	.	32AA-/JJ	.	.	.
.	.	8DD-/J) 8FF-	.	.	.
.	.	.	.	32g-X/LL	.
.	.	.	.	32a-/JJJ)	.
.	.	(32BBB-^^</LLL 32DD-	.	(8.d-^^/L	.
.	.	32FF-/	.	.	.
.	.	32BBB-/ 32DD-	.	.	.
.	.	32FF-/JJ	.	.	.
.	.	8BBB-/J) 8DD-	.	.	.
.	.	.	.	32e-/LL	.
.	.	.	.	32f-/JJJ)	.
=42	=42	=42	=42	=42	=42
4r	.	8.EE-\L	.	16e-\LL	.
.	.	.	.	(16ff-X\J	.
.	.	.	.	8ee-\J)	.
.	.	16E-\Jk	.	.	.
8r	.	8.An^^\L 8.c 8.g-X	.	16r	.
.	.	.	.	(16ff-\KL	.
2CCC/ 2DDD- 2EEE-X 2EEEn	.	.	.	8ee-\J)	.
.	.	16E-\Jk	.	.	.
.	.	8.A-X^^\L 8.c-X 8.f	.	16r	.
.	.	.	.	(16ee-\KL	.
.	.	.	.	8ddn\J)	.
.	.	16E-\Jk	.	.	.
.	.	8.Gn^^\L 8.B- 8.f-X	.	16r	.
.	.	.	.	(16ee-\KL	.
8r	.	.	.	8dd-X\J)	.
.	.	16E-\Jk	.	.	.
=43	=43	=43	=43	=43	=43
8r	.	8.G-X^^\L 8.B-- 8.e-	.	16r	.
.	.	.	.	(16dd-\KL	.
2CCC/ 2DDD- 2EEE-X 2EEEn	.	.	.	8cc\J)	.
.	.	16E-\Jk	.	.	.
.	.	8.F^^\L 8.A- 8.e--	.	16r	.
.	.	.	.	(16dd-\KL	.
.	.	.	.	8cc-X\J)	.
.	.	16Dn\Jk	.	.	.
.	.	8.F-X^^\L 8.A- 8.d-	.	16r	.
.	.	.	.	(16cc-\KL	.
4ryy	.	.	.	8b-\J)	.
.	.	16E-\Jk	.	.	.
.	.	8.E-^^\L 8.Gn 8.d-	.	16r	.
.	.	.	.	16qqb-/LL	.
.	.	.	.	16qqdd-/JJ	.
.	.	.	.	16cc-;\KL	.
8r;	.	.	.	8b-\J	.
.	.	16E-;\Jk	.	.	.
!LO:PB:g=original	!	!LO:PB:g=original	!	!LO:PB:g=original	!
=44||	=44||	=44||	=44||	=44||	=44||
*M12/8	*	*M12/8	*	*M12/8	*
*	*	*	*	*^	*
!	!LO:DY:a	!	!	!	!	!
1.r	pp	8AAA-\L 8AA-	.	8a-/	4.e-\	ff
.	.	8E-\ 8A- 8c	.	8r	.	.
.	.	8E-\J 8A- 8c	.	8r	.	.
!	!	!	!	!LO:TX:b:t=con molto espress.	!	!
.	.	8C\L	.	4r	[4.e-^^\	.
.	.	8E-\ 8A- 8c	.	.	.	.
.	.	8E-\J 8A- 8c	.	8r	.	.
.	.	8BB-\L	.	2.ryy	8e-^^\L]	.
.	.	8E-\ 8G 8B-	.	.	8d-^^\	.
.	.	8E-\J 8G 8B-	.	.	8e-^^\J	.
.	.	.	.	.	8qg/	.
.	.	8EE-\L	.	.	4f^^\	.
.	.	8E-\ 8G 8B-	.	.	.	.
!	!	!	!	!	!	!LO:DY:a
.	.	8E-\J 8G 8B-	.	.	8e-^^\	pp
*	*	*	*	*v	*v	*
=45	=45	=45	=45	=45	=45
*	*	*^	*	*	*
1.r	.	4c^^/	8AA-\L 8C 8A-	.	4.eee-\	.
.	.	.	8E-\ 8A-	.	.	.
.	.	8d-^^/	8E-\J 8A-	.	.	.
.	.	[4.e-^^/	8C\L 8E- 8A-	.	[4.eee-\	.
.	.	.	8E-\ 8A-	.	.	.
.	.	.	8E-\J 8A-	.	.	.
.	.	4.e-/]	8BB-\L	.	8eee-\L]	.
.	.	.	8E-\ 8G 8d-	.	8ddd-\	.
.	.	.	8E-\J 8G 8d-	.	8eee-\J	.
.	.	.	.	.	8qggg/	.
.	.	4r	8EE-\L	.	4fff\	.
.	.	.	8E-\ 8G 8d-	.	.	.
.	.	8r	8E-\J 8G 8d-	.	8eee-\	.
=46	=46	=46	=46	=46	=46	=46
*	*	*	*	*	*^	*
4r	.	4.e-^^/	8AA-\L	.	(4ccc\	4.ryy	.
.	.	.	8E-\ 8A- 8c	.	.	.	.
8r	.	.	8E-\J 8A- 8c	.	8ddd-\	.	ff
2.CCC/ 2.DDD- 2.EEE-X 2.EEEn	.	2.ryy	8r	.	4eee-:\)	4e-^^>:\	.
.	.	.	8E-\L 8A- 8c	.	.	.	.
.	.	.	8E-\J 8A- 8c	.	8r	2.ryy	.
.	.	.	8BB-\L	.	8e-^^</L	.	.
.	.	.	8E-\ 8G 8d-	.	8dn^^</	.	.
.	.	.	8E-\J 8G 8d-	.	8e-^^</J	.	.
.	.	.	.	.	8qg/	.	ff
4r	.	4.ryy	8EE-\L	.	4f^^</	.	.
.	.	.	8E-\ 8G 8d-	.	.	.	.
8r	.	.	8E-\J 8G 8d-	.	8e-^^</	8ryy	.
!LO:LB:g=original	!	!	!LO:LB:g=original	!	!	!LO:LB:g=original	!
*	*	*v	*v	*	*	*	*
=47	=47	=47	=47	=47	=47	=47
!	!	!	!	!LO:TX:t=P:problem:LO:N:Vis=2	!	!
1.r	.	8AA-\L	.	2.r	4c^^>\	.
.	.	8E-\ 8A-	.	.	.	.
.	.	8E-\J 8A-	.	.	8d-^^>\	.
.	.	8E-\L 8A-	.	.	4.c^^>\	.
.	.	8E-\ 8A-	.	.	.	.
.	.	8E-\J 8A-	.	.	.	.
.	.	8FF\L	.	8r	4.a-^^>\	ff
.	.	8F\ 8A-	.	8cc/L 8ff	.	.
.	.	8A-\J 8c	.	8ff/J 8aa-	.	.
.	.	8f>^^\L 8a-	.	8aa-/L 8ccc	4.ryy	.
.	.	8c\ 8f	.	8ff/ 8aa-	.	.
.	.	8A-\J 8c 8a-> 8cc>	.	8ff/J	.	.
=48	=48	=48	=48	=48	=48	=48
4r	.	8CC\L 8C	.	8r	2.g^^>\	.
.	.	8G\ 8c 8e-	.	8cc/L 8ee-	.	.
8r	.	8G\J 8c 8e-	.	8ee-/J 8gg	.	.
2.CCC/ 2.DDD- 2.EEE-X 2.EEEn	.	8r	.	8gg/L 8ccc	.	.
.	.	8G\L 8c 8e-	.	8ee-/ 8gg	.	.
.	.	8G\J 8c 8e-	.	8cc/J 8ee-	.	.
.	.	8DD-\L	.	8r	8f^^\	.
.	.	8F^^\ 8A- 8d-> 8f	.	8dd-/L 8ff	2ryy	.
.	.	8F^^\J 8A- 8d-> 8f	.	8ff/J 8aa-	.	.
4r	.	8F^^\L 8A- 8d-> 8f	.	8aa-/L 8ddd-	.	.
.	.	8F^^\ 8A- 8d-> 8f	.	8ff/ 8aa-	.	.
8r	.	8F^^\J 8A- 8d-> 8f	.	8dd-/J 8ff	8ryy	.
=49	=49	=49	=49	=49	=49	=49
2r	.	8AAA-\L 8AA-	.	8r	4e-^^\	.
.	.	8E-\ 8A-	.	8cc/L 8ee-	.	.
.	.	8A-\J 8c	.	8ee-/J 8aa-	8ryy	.
.	.	8c\L 8e-	.	8aa-/L 8ccc	4e-\	.
4ryy	.	8A-\ 8c	.	8ee-/ 8aa-	.	.
.	.	8E-^^\J 8A- 8c>	.	8cc/J 8ee-	8ryy	.
2CCC/ 2DDD- 2EEE-X 2EEEn	.	8r	.	8r	[4.e-^^\	.
.	.	8EE-\L	.	8dd-/L 8gg	.	.
.	.	8E-\J 8G	.	8gg/J 8bb-	.	.
.	.	8G\L 8B-	.	8bb-/L 8ddd-	4e-\]	.
4ryy	.	8E-\ 8G	.	8gg/ 8bb-	.	.
.	.	8E-^^\J 8G 8d->	.	8dd-/J 8gg	8ryy	.
!LO:LB:g=original	!	!LO:LB:g=original	!	!	!LO:LB:g=original	!
=50	=50	=50	=50	=50	=50	=50
1.r	.	8FF\L	.	8r	4.c^^\	.
.	.	8F\ 8A- 8c	.	8cc/L 8ff	.	.
.	.	8A-\J 8c 8f	.	8ff/J 8aa-	.	.
.	.	8DDn\L	.	8r	8f^^\L	.
.	.	8F\ 8A- 8c-X	.	8ddn/ 8ff	8g^^\	.
.	.	8D-\J 8F 8A-	.	8r	16b-^^\L	.
.	.	.	.	.	16a-^^\JJ	.
.	.	8EE-\L	.	8r	8.a-^^\L 8.cc	.
.	.	8An\ 8c-	.	4ee-/	.	.
.	.	.	.	.	16e-^^\L	.
.	.	8E-\J 8A	.	.	16dn^^\	.
.	.	.	.	.	16e-^^\JJ	.
.	.	.	.	.	16qqe-/LL	.
.	.	.	.	.	16qqg-X/JJ	.
.	.	8EE-\L	.	8r	4f-X\	.
.	.	8G\ 8B- 8d-	.	8gn/ 8b- 8dd	.	.
.	.	8E-\J 8G 8B-	.	8r	8e-^^\	.
*	*	*	*	*v	*v	*
=51	=51	=51	=51	=51	=51
*	*	*	*	*8va	*
*	*	*	*	*^	*
1.r	.	8AAA-\L 8AA-	.	8.aaa-/L 8.aaaa-	4r	.
.	.	8E-\ 8A-	.	.	.	.
.	.	.	.	16ggg/L 16gggg	.	.
.	.	8A-\J 8c	.	16fff/ 16ffff	8r	.
.	.	.	.	16eee-/JJ 16eeee-	.	.
.	.	8c\L 8e-	.	8.fff/L 8.ffff	4r	.
.	.	8A-\ 8c	.	.	.	.
.	.	.	.	16eee-/L 16eeee-	.	.
.	.	8E-\J 8A-	.	16ddd-/ 16dddd-	8r	.
.	.	.	.	16ccc/JJ 16cccc	.	.
!	!	!LO:TX:a:i:t=il tema marcato.	!	!LO:TX:t=P:problem:zapisane wyżej ale 8va bierze je pod siebie	!	!
.	.	8AAA-\L 8AA-	.	8ddd-/ 8dddd-	8e-^^>\L 8ee-	.
*	*	*	*	*v	*v	*
*	*	*	*	*X8va	*
*	*	*	*	*^	*
.	.	8E-\ 8G	.	8r	8e-^^>\ 8ee-	.
.	.	8G\J 8B-	.	8r	8e-^^>\J 8ee-	.
.	.	.	.	.	8qg/ 8qgg	.
.	.	8B-\L 8d-	.	4r	4f\ 4ff	.
.	.	8G\ 8B-	.	.	.	.
.	.	8E-\J 8G	.	8r	8e-\ 8ee-	.
*	*	*	*	*v	*v	*
=52	=52	=52	=52	=52	=52
*	*	*	*	*8va	*
*	*	*	*	*^	*
!	!	!	!	!LO:TX:t=P:problem:zapisane wyżej ale 8va bierze je pod siebie	!	!
1.r	.	8AAA-\L 8AA-	.	8.aaa-/L 8.aaaa-	4c^^\ 4cc	.
.	.	8E-\ 8A- 8c	.	.	.	.
.	.	.	.	16ggg/L 16gggg	.	.
.	.	8d->\J 8dd->	.	16fff/ 16ffff	4ryy	.
.	.	.	.	16eee-/JJ 16eeee-	.	.
.	.	8e->\L 8ee->	.	8.fff/L 8.ffff	.	.
.	.	8A-\ 8c	.	.	8r	.
.	.	.	.	16eee-/L 16eeee-	.	.
.	.	8E-\J 8A-	.	16ddd-/ 16dddd-	8r	.
.	.	.	.	16ccc/JJ 16cccc	.	.
!	!	!	!	!LO:TX:t=P:problem:zapisane wyżej ale 8va bierze je pod siebie	!	!
.	.	8AAA-\L 8AA-	.	8ddd-/ 8dddd-	8e-^^>\L 8ee-	.
*	*	*	*	*v	*v	*
*	*	*	*	*X8va	*
*	*	*	*	*^	*
.	.	8E-\ 8G	.	8r	8e-^^>\ 8ee-	.
.	.	8G\J 8B-	.	8r	8e-^^>\J 8ee-	.
.	.	8B-\L 8d-	.	4r	4f^^>\ 4ff	.
.	.	8G\ 8B-	.	.	.	.
.	.	8E-\J 8G	.	8r	8e-^^>\ 8ee-	.
!LO:LB:g=original	!	!LO:LB:g=original	!	!LO:LB:g=original	!LO:LB:g=original	!
*	*	*	*	*v	*v	*
=53	=53	=53	=53	=53	=53
*	*	*^	*	*	*
1.ryy	.	4.C^^/ 4.c	8AAA-\L 8AA-	.	8.aa-\L 8.aaa-	.
.	.	.	8C\ 8E-	.	.	.
.	.	.	.	.	16gg\L 16ggg	.
.	.	.	8E-\J 8A-	.	16ff\ 16fff	.
.	.	.	.	.	16een\JJ 16eeen	.
.	.	4A-^^/ 4a-	8FF\L 8F	.	16ff\LL 16fff	.
.	.	.	.	.	16ee\ 16eee	.
.	.	.	8B-\J 8f	.	16ff\ 16fff	.
.	.	.	.	.	16gg\ 16ggg	.
.	.	8A-^^/ 8a-	8r	.	16aa-\ 16aaa-	.
.	.	.	.	.	16bb-\JJ 16bbb-	.
*	*	*v	*v	*	*	*
*	*	*	*	*8va	*
*	*	*^	*	*	*
.	.	4.G^^/ 4.g	8CC\L 8C	.	16ccc\LL 16cccc	.
.	.	.	.	.	16bbn\ 16bbbn	.
.	.	.	8c\ 8en	.	16ccc\ 16cccc	.
.	.	.	.	.	16ddd-\ 16dddd-	.
.	.	.	8G\J	.	16eee\ 16eeeen	.
.	.	.	.	.	16eeen\JJ 16eeeen	.
.	.	8F^^/L 8A- 8d- 8f	4.DD-\ 4.D-	.	16fff\LL 16ffff	.
.	.	.	.	.	16eee\ 16eeee	.
.	.	16F^^/L 16A- 16d- 16f	.	.	16fff\ 16ffff	.
.	.	16F^^/ 16A- 16d- 16f	.	.	16fff#X\ 16ffff#X	.
.	.	16F^^/ 16A- 16d- 16f	.	.	16ggg\ 16gggg	.
.	.	16F^^/JJ 16A- 16d- 16f	.	.	16aaa-\JJ 16aaaa-	.
=54	=54	=54	=54	=54	=54	=54
1.ryy	.	4E-^^/ 4e-	8AAA-\L 8AA-	.	16aaa-\LL 16aaaa-	.
.	.	.	.	.	16ggg\ 16gggg	.
.	.	.	8A-\J 8c	.	16fff\ 16ffff	.
.	.	.	.	.	16eee-\ 16eeee-	.
.	.	8C^^/ 8c	8r	.	16dddn\ 16ddddn	.
.	.	.	.	.	16eee-\JJ 16eeee-	.
.	.	4E-^^/ 4e-	8DD-\L 8D-	.	16eeen\LL 16eeeen	.
.	.	.	.	.	16fff\ 16ffff	.
.	.	.	8F\J 8B-	.	16ggg\ 16gggg	.
.	.	.	.	.	16fff\ 16ffff	.
.	.	8D-^^/ 8d-	8r	.	16eee-X\ 16eeee-X	.
.	.	.	.	.	16ddd-X\JJ 16dddd-X	.
.	.	4C^^/ 4c	8EEE-\L 8EE-	.	16ccc\LL 16cccc	.
.	.	.	.	.	16ddd-\ 16dddd-	.
.	.	.	8E-\J 8A-	.	16dddn\ 16ddddn	.
.	.	.	.	.	16eee-\ 16eeee-	.
.	.	8EE-^^/ 8E-	8r	.	16ddd\ 16dddd	.
.	.	.	.	.	16eee-\JJ 16eeee-	.
.	.	4C^^/ 4c	8EEE-\L 8EE-	.	32ddd\LLL 32dddd	.
.	.	.	.	.	32eee-\ 32eeee-	.
.	.	.	.	.	32ddd\ 32dddd	.
.	.	.	.	.	32eee-\ 32eeee-	.
.	.	.	8E-\J 8G	.	32ddd\ 32dddd	.
.	.	.	.	.	32eee-\ 32eeee-	.
.	.	.	.	.	32ddd\ 32dddd	.
.	.	.	.	.	32eee-\ 32eeee-	.
.	.	8BB-^^/ 8B-	8r	.	32eeen\ 32eeeen	.
.	.	.	.	.	32fff\ 32ffff	.
.	.	.	.	.	32fff#X\ 32ffff#X	.
.	.	.	.	.	32ggg\JJJ 32gggg	.
!LO:LB:g=original	!	!LO:LB:g=original	!	!	!LO:LB:g=original	!
*	*	*v	*v	*	*	*
=55	=55	=55	=55	=55	=55
*	*	*	*	*^	*
1.r	.	8AAA-\L 8AA-	.	8.aaa-/L 8.aaaa-	4r	.
.	.	8E-\ 8A-	.	.	.	.
.	.	.	.	16ggg/L 16gggg	.	.
.	.	8A-\J 8c	.	16fff/ 16ffff	8r	.
.	.	.	.	16eee-/JJ 16eeee-	.	.
.	.	8c\L 8e-	.	8.fff/L 8.ffff	4r	.
.	.	8A-\ 8c	.	.	.	.
.	.	.	.	16eee-/L 16eeee-	.	.
.	.	8E-\J 8A-	.	16ddd-/ 16dddd-	8r	.
.	.	.	.	16ccc/JJ 16cccc	.	.
!	!	!LO:TX:a:i:t=il tema marcatissimo..	!	!LO:TX:t=P:problem:zapisane wyżej ale 8va bierze je pod siebie	!	!
.	.	8AAA-\L 8AA-	.	8ddd-/ 8dddd-	8e-^^>\L 8ee-	.
*	*	*	*	*v	*v	*
*	*	*	*	*X8va	*
*	*	*	*	*^	*
.	.	8E-\ 8G	.	8r	8e-^^>\ 8ee-	.
.	.	8G\J 8B-	.	8r	8e-^^>\J 8ee-	.
.	.	.	.	.	8qg/ 8qgg	.
.	.	8B-\L 8d-	.	4r	4f\ 4ff	.
.	.	8G\ 8B-	.	.	.	.
.	.	8E-\J 8G	.	8r	8e-\ 8ee-	.
*	*	*	*	*v	*v	*
=56	=56	=56	=56	=56	=56
*	*	*	*	*8va	*
*	*	*	*	*^	*
!	!	!	!	!LO:TX:t=P:problem:zapisane wyżej ale 8va bierze je pod siebie	!	!
1.r	.	8AAA-\L 8AA-	.	8.aaa-/L 8.aaaa-	4c^^>\ 4cc	.
.	.	8E-\ 8A- 8c	.	.	.	.
.	.	.	.	16ggg/L 16gggg	.	.
.	.	8d->\J 8dd->	.	16fff/ 16ffff	4ryy	.
.	.	.	.	16eee-/JJ 16eeee-	.	.
.	.	8e->\L 8ee-	.	8.fff/L 8.ffff	.	.
.	.	8A->\ 8c	.	.	8r	.
.	.	.	.	16eee-/L 16eeee-	.	.
.	.	8E-\J 8A-	.	16ddd-/ 16dddd-	8r	.
.	.	.	.	16ccc/JJ 16cccc	.	.
!	!	!	!	!LO:TX:t=P:problem:zapisane wyżej ale 8va bierze je pod siebie	!	!
.	.	8AAA-\L 8AA-	.	8ddd-/ 8dddd-	8e-^^>\L 8ee-	.
*	*	*	*	*v	*v	*
*	*	*	*	*X8va	*
*	*	*	*	*^	*
.	.	8E-\ 8G	.	8r	8e-^^>\ 8ee-	.
.	.	8G\J 8B-	.	8r	8e-^^>\J 8ee-	.
.	.	8B-\L 8d-	.	4r	4f^^>\ 4ff	.
.	.	8G\ 8B-	.	.	.	.
.	.	8E-\J 8G	.	8r	8e-^^>\ 8ee-	.
!LO:LB:g=original	!	!LO:LB:g=original	!	!LO:LB:g=original	!LO:LB:g=original	!
*	*	*	*	*v	*v	*
=57	=57	=57	=57	=57	=57
*	*	*^	*	*	*
1.ryy	.	4.C^^/ 4.c	8AAA-\L 8AA-	.	8.aa-\L 8.aaa-	.
.	.	.	8C\ 8E-	.	.	.
.	.	.	.	.	16gg\L 16ggg	.
.	.	.	8E-\J 8A-	.	16ff\ 16fff	.
.	.	.	.	.	16een\JJ 16eeen	.
.	.	4A-^^/ 4a-	8FF\L 8F	.	16ff\LL 16fff	.
.	.	.	.	.	16ee\ 16eee	.
.	.	.	8B-\J 8f	.	16ff\ 16fff	.
.	.	.	.	.	16gg\ 16ggg	.
.	.	8A-^^/ 8a-	8r	.	16aa-\ 16aaa-	.
.	.	.	.	.	16bb-\JJ 16bbb-	.
*	*	*v	*v	*	*	*
*	*	*	*	*8va	*
*	*	*^	*	*	*
.	.	4.G^^/ 4.g	8CC\L 8C	.	16ccc\LL 16cccc	.
.	.	.	.	.	16bbn\ 16bbbn	.
.	.	.	8c\ 8en	.	16ccc\ 16cccc	.
.	.	.	.	.	16ddd-\ 16dddd-	.
.	.	.	8G\J	.	16eee\ 16eeeen	.
.	.	.	.	.	16eeen\JJ 16eeeen	.
.	.	8F^^/L 8A- 8d- 8f	4.DD-\ 4.D-	.	16fff\LL 16ffff	.
.	.	.	.	.	16eee\ 16eeee	.
.	.	16F^^/L 16A- 16d- 16f	.	.	16fff\ 16ffff	.
.	.	16F^^/ 16A- 16d- 16f	.	.	16fff#X\ 16ffff#X	.
.	.	16F^^/ 16A- 16d- 16f	.	.	16ggg\ 16gggg	.
.	.	16F^^/JJ 16A- 16d- 16f	.	.	16aaa-\JJ 16aaaa-	.
=58	=58	=58	=58	=58	=58	=58
1.ryy	.	4E-^^/ 4e-	8AAA-\L 8AA-	.	16aaa-\LL 16aaaa-	.
.	.	.	.	.	16ggg\ 16gggg	.
.	.	.	8A-\J 8c	.	16fff\ 16ffff	.
.	.	.	.	.	16eee-\ 16eeee-	.
.	.	8C^^/ 8c	8r	.	16dddn\ 16ddddn	.
.	.	.	.	.	16eee-\JJ 16eeee-	.
.	.	4E-^^/ 4e-	8DD-\L 8D-	.	16eeen\LL 16eeeen	.
.	.	.	.	.	16fff\ 16ffff	.
.	.	.	8F\J 8B-	.	16ggg\ 16gggg	.
.	.	.	.	.	16fff\ 16ffff	.
.	.	8D-^^/ 8d-	8r	.	16eee-X\ 16eeee-X	.
.	.	.	.	.	16ddd-X\JJ 16dddd-X	.
.	.	4C^^/ 4c	8EEE-\L 8EE-	.	16ccc\LL 16cccc	.
.	.	.	.	.	16ddd-\ 16dddd-	.
.	.	.	8E-\J 8A-	.	16dddn\ 16ddddn	.
.	.	.	.	.	16eee-\ 16eeee-	.
.	.	8EE-^^/ 8E-	8r	.	16ddd\ 16dddd	.
.	.	.	.	.	16eee-\JJ 16eeee-	.
.	.	4C^^/ 4c	8EEE-\L 8EE-	.	32ddd\LLL 32dddd	.
.	.	.	.	.	32eee-\ 32eeee-	.
.	.	.	.	.	32ddd\ 32dddd	.
.	.	.	.	.	32eee-\ 32eeee-	.
.	.	.	8E-\J 8G	.	32ddd\ 32dddd	.
.	.	.	.	.	32eee-\ 32eeee-	.
.	.	.	.	.	32ddd\ 32dddd	.
.	.	.	.	.	32eee-\ 32eeee-	.
.	.	8BB-^^/ 8B-	8r	.	32eeen\ 32eeeen	.
.	.	.	.	.	32fff\ 32ffff	.
.	.	.	.	.	32fff#X\ 32ffff#X	.
.	.	.	.	.	32ggg\JJJ 32gggg	.
!LO:PB:g=original	!	!LO:PB:g=original	!LO:PB:g=original	!	!LO:PB:g=original	!
*	*	*v	*v	*	*	*
=59	=59	=59	=59	=59	=59
*	*	*	*	*^	*
!	!	!LO:TX:b:i:t=legatissimo.	!	!	!	!
1.r	.	24AA-\LL	.	8.aaa-/L 8.aaaa-	2.ryy	.
.	.	24E-\	.	.	.	.
.	.	24A-\	.	.	.	.
.	.	24c\	.	.	.	.
.	.	24e->\	.	.	.	.
.	.	.	.	16ggg/L 16gggg	.	.
.	.	24a->\	.	.	.	.
.	.	24cc>\	.	16fff/ 16ffff	.	.
.	.	24a->\	.	.	.	.
.	.	.	.	16eee-/JJ 16eeee-	.	.
.	.	24e->\JJ	.	.	.	.
.	.	24cc>\LL	.	8.fff/L 8.ffff	.	.
.	.	24a->\	.	.	.	.
.	.	24e->\	.	.	.	.
.	.	24c\	.	.	.	.
.	.	24A-\	.	.	.	.
.	.	.	.	16eee-/L 16eeee-	.	.
.	.	24E-\	.	.	.	.
.	.	24AA-\	.	16ddd-/ 16dddd-	.	.
.	.	24E-\	.	.	.	.
.	.	.	.	16ccc/JJ 16cccc	.	.
.	.	24A-\JJ	.	.	.	.
!	!	!	!	!LO:TX:t=P:problem:zapisane wyżej ale 8va bierze je pod siebie	!	!
.	.	24AA-\LL	.	8ddd-/ 8dddd-	8ee-^^\L	.
.	.	24E-\	.	.	.	.
.	.	24G\	.	.	.	.
*	*	*	*	*v	*v	*
*	*	*	*	*X8va	*
*	*	*	*	*^	*
.	.	24d-\	.	8r	8ee-^^\	.
.	.	24e-\	.	.	.	.
.	.	24g\	.	.	.	.
*	*	*clefG2	*	*	*	*
.	.	24dd-\	.	8r	8ee-^^\J	.
.	.	24g\	.	.	.	.
.	.	24e-\JJ	.	.	.	.
.	.	.	.	.	16qqee-/LL	.
.	.	.	.	.	16qqgg/JJ	.
.	.	24dd-\LL	.	4r	4ff\	.
.	.	24g\	.	.	.	.
.	.	24e-\	.	.	.	.
*	*	*clefF4	*	*	*	*
.	.	24d-\	.	.	.	.
.	.	24G\	.	.	.	.
.	.	24E-\	.	.	.	.
.	.	24AA-\	.	8r	8ee-^^\	.
.	.	24E-\	.	.	.	.
.	.	24G\JJ	.	.	.	.
*	*	*	*	*v	*v	*
=60	=60	=60	=60	=60	=60
*	*	*	*	*8va	*
*	*	*	*	*^	*
1.r	.	24AA-\LL	.	8.aaa-/L 8.aaaa-	2.ryy	.
.	.	24E-\	.	.	.	.
.	.	24A-\	.	.	.	.
.	.	24c\	.	.	.	.
.	.	24e-\	.	.	.	.
.	.	.	.	16ggg/L 16gggg	.	.
.	.	24a-\	.	.	.	.
.	.	24cc>\	.	16fff/ 16ffff	.	.
.	.	24a->\	.	.	.	.
.	.	.	.	16eee-/JJ 16eeee-	.	.
.	.	24e->\JJ	.	.	.	.
.	.	24ee->^^\LL	.	8.fff/L 8.ffff	.	.
.	.	24a->\	.	.	.	.
.	.	24e->\	.	.	.	.
.	.	24cc\	.	.	.	.
.	.	24a-\	.	.	.	.
.	.	.	.	16eee-/L 16eeee-	.	.
.	.	24e-\	.	.	.	.
.	.	24c\	.	16ddd-/ 16dddd-	.	.
.	.	24A-\	.	.	.	.
.	.	.	.	16ccc/JJ 16cccc	.	.
.	.	24E-\JJ	.	.	.	.
!	!	!	!	!LO:TX:t=P:problem:zapisane wyżej ale 8va bierze je pod siebie	!	!
.	.	24AA-\LL	.	8ddd-/ 8dddd-	8ee-^^\L	.
.	.	24E-\	.	.	.	.
.	.	24G\	.	.	.	.
*	*	*clefG2	*	*	*	*
*	*	*	*	*v	*v	*
*	*	*	*	*X8va	*
*	*	*	*	*^	*
.	.	24d-\	.	8r	8ee-^^\	.
.	.	24e-\	.	.	.	.
.	.	24g\	.	.	.	.
.	.	24dd-\	.	8r	8ee-^^\J	.
.	.	24g\	.	.	.	.
.	.	24e-\JJ	.	.	.	.
.	.	.	.	.	16qqee-/LL	.
.	.	.	.	.	16qqgg/JJ	.
.	.	24dd-\LL	.	4r	4ff^^\	.
.	.	24g\	.	.	.	.
.	.	24e-\	.	.	.	.
*	*	*clefF4	*	*	*	*
.	.	24d-\	.	.	.	.
.	.	24G\	.	.	.	.
.	.	24E-\	.	.	.	.
.	.	24AA-\	.	8r	8ee-\	.
.	.	24E-\	.	.	.	.
.	.	24G\JJ	.	.	.	.
!LO:LB:g=original	!	!LO:LB:g=original	!	!LO:LB:g=original	!LO:LB:g=original	!
*	*	*	*	*v	*v	*
=61	=61	=61	=61	=61	=61
*	*	*	*	*8va	*
1.r	.	(24AA-\LL	.	8.aaa-\L 8.aaaa-	p
.	.	24E-\	.	.	.
.	.	24A-\	.	.	.
.	.	24c\	.	.	.
.	.	24e-\	.	.	.
.	.	.	.	16ggg\L 16gggg	.
.	.	24a-\	.	.	.
*	*	*clefG2	*	*	*
.	.	24cc\	.	16fff\ 16ffff	.
.	.	24ee-\	.	.	.
.	.	.	.	16eee-\JJ 16eeee-	.
.	.	24aa-\JJ	.	.	.
.	.	24ccc\LL	.	8.fff^\L 8.ffff	.
.	.	24aa-\	.	.	.
.	.	24ff\	.	.	.
.	.	24cc\	.	.	.
.	.	24a-\	.	.	.
.	.	.	.	16eee-\L 16eeee-	.
.	.	24e-\	.	.	.
*	*	*clefF4	*	*	*
.	.	24c\	.	16ddd-\ 16dddd-	.
.	.	24A-\	.	.	.
.	.	.	.	16ccc\JJ 16cccc	.
.	.	24E-\JJ)	.	.	.
.	.	(24AA-\LL	.	16ddd-\LL 16dddd-	.
.	.	24E-\	.	.	.
.	.	.	.	16ccc\ 16cccc	.
.	.	24G\	.	.	.
.	.	24c\	.	16bb-\ 16bbb-	.
.	.	24e-\	.	.	.
.	.	.	.	16aa-\ 16aaa-	.
.	.	24a-\	.	.	.
.	.	24cc\	.	16bb-\ 16bbb-	.
.	.	24a-\	.	.	.
.	.	.	.	16aa-\JJ 16aaa-	.
.	.	24e-\JJ	.	.	.
.	.	24cc\LL	.	16ff/LL 16fff	.
.	.	24a-\	.	.	.
.	.	.	.	16ee-/ 16eee-	.
.	.	24f\	.	.	.
.	.	24c\	.	16ff/ 16fff	.
.	.	24A-\	.	.	.
.	.	.	.	16ee-/ 16eee-	.
.	.	24E-\	.	.	.
.	.	24C\	.	16cc/ 16ccc	.
.	.	24AA-\	.	.	.
.	.	.	.	16b-/JJ 16bb-	.
.	.	24EE-\JJ)	.	.	.
=62	=62	=62	=62	=62	=62
1.r	.	24AA-\LL	.	16a-/LL 16aa-	.
.	.	24E-\	.	.	.
.	.	.	.	16an/ 16aan	.
.	.	24A-\	.	.	.
.	.	24c\	.	16b-/ 16bb-	.
.	.	24A-\	.	.	.
.	.	.	.	16bn/ 16bbn	.
.	.	24E-\	.	.	.
.	.	24AA-\	.	16cc/ 16ccc	.
.	.	24E-\	.	.	.
.	.	.	.	16dd-/JJ 16ddd-	.
.	.	24A-\JJ	.	.	.
.	.	24AA-\LL	.	16ddn\LL 16dddn	.
.	.	24E-\	.	.	.
.	.	.	.	16ee-\ 16eee-	.
.	.	24A-\	.	.	.
.	.	24c\	.	16een\ 16eeen	.
.	.	24A-\	.	.	.
.	.	.	.	16ff\ 16fff	.
.	.	24E-\	.	.	.
.	.	24AA-\	.	16ff#X\ 16fff#X	.
.	.	24E-\	.	.	.
.	.	.	.	16gg\JJ 16ggg	.
.	.	24A-\JJ	.	.	.
.	.	24AA-\LL	.	16aa\LL 16aaa-	.
.	.	24E-\	.	.	.
.	.	.	.	16aan\ 16aaan	.
.	.	24A-\	.	.	.
.	.	24c\	.	16bb\ 16bbb-	.
.	.	24A-\	.	.	.
.	.	.	.	16bbn\ 16bbbn	.
.	.	24E-\	.	.	.
.	.	24AA-\	.	16ccc\ 16cccc	.
.	.	24E-\	.	.	.
.	.	.	.	16ddd\JJ 16dddd-	.
.	.	24A-\JJ	.	.	.
.	.	24AA-\LL	.	16dddn\LL 16ddddn	.
.	.	24E-\	.	.	.
.	.	.	.	16eee\ 16eeee-	.
.	.	24A-\	.	.	.
.	.	24c\	.	16eeen\ 16eeeen	.
.	.	24A-\	.	.	.
.	.	.	.	16fffn\ 16ffffn	.
.	.	24E-\	.	.	.
.	.	24AA-\	.	16fff#X\ 16ffff#X	.
.	.	24E-\	.	.	.
.	.	.	.	16ggg\JJ 16gggg	.
.	.	24A-\JJ	.	.	.
!LO:LB:g=original	!	!LO:LB:g=original	!	!LO:LB:g=original	!
=63	=63	=63	=63	=63	=63
2r	.	4AA-/	.	16aaa-\LL 16aaaa-	pp
.	.	.	.	16aaa-\ 16aaaa-	.
.	.	.	.	16aaa-\ 16aaaa-	.
.	.	.	.	16aaa-\ 16aaaa-	.
.	.	8r	.	16aaa-\ 16aaaa-	.
.	.	.	.	16aaa-\JJ 16aaaa-	.
.	.	4r	.	16aaa-\LL 16aaaa-	.
.	.	.	.	16aaa-\ 16aaaa-	.
4ryy	.	.	.	16aaa-\ 16aaaa-	.
.	.	.	.	16aaa-\ 16aaaa-	.
.	.	8r	.	16aaa-\ 16aaaa-	.
.	.	.	.	16aaa-\JJ 16aaaa-	.
4r	.	4D-:\ 4A-: 4d-: 4f-X:	.	16aaa-\LL 16aaaa-	.
.	.	.	.	16aaa-\ 16aaaa-	.
.	.	.	.	16aaa-\ 16aaaa-	.
.	.	.	.	16aaa-\ 16aaaa-	.
8r	.	8r	.	16aaa-\ 16aaaa-	.
.	.	.	.	16aaa-\JJ 16aaaa-	.
[4.CCC/ [4.DDD- [4.EEE-X [4.EEEn	.	4r	.	16aaa-\LL 16aaaa-	.
.	.	.	.	16aaa-\ 16aaaa-	.
.	.	.	.	16aaa-\ 16aaaa-	.
.	.	.	.	16aaa-\ 16aaaa-	.
.	.	8r	.	16aaa-\ 16aaaa-	.
.	.	.	.	16aaa-\JJ 16aaaa-	.
=64	=64	=64	=64	=64	=64
2.CCC/] 2.DDD-] 2.EEE-X] 2.EEEn]	.	4.AA-:\ 4.E-: 4.A-: 4.c: 4.e-:	.	16aaa-\LL 16aaaa-	.
.	.	.	.	16aaa-\ 16aaaa-	.
.	.	.	.	16aaa-\ 16aaaa-	.
.	.	.	.	16aaa-\ 16aaaa-	.
.	.	.	.	16aaa-\ 16aaaa-	.
.	.	.	.	16aaa-\JJ 16aaaa-	.
.	.	4r	.	16aaa-\LL 16aaaa-	.
.	.	.	.	16aaa-\ 16aaaa-	.
.	.	.	.	16aaa-\ 16aaaa-	.
.	.	.	.	16aaa-\ 16aaaa-	.
.	.	8r	.	16aaa-\ 16aaaa-	.
.	.	.	.	16aaa-\JJ 16aaaa-	.
4r	.	4.D-\ 4.F-X 4.A- 4.d-	.	16aaa-\LL 16aaaa-	.
.	.	.	.	16aaa-\ 16aaaa-	.
.	.	.	.	16aaa-\ 16aaaa-	.
.	.	.	.	16aaa-\ 16aaaa-	.
8r	.	.	.	16aaa-\ 16aaaa-	.
.	.	.	.	16aaa-\JJ 16aaaa-	.
!	!	!	!	!LO:TX:b:t=molto.	!
4.CCC/ 4.DDD- 4.EEE-X 4.EEEn	.	4r	.	16aaa-\LL 16aaaa-	.
.	.	.	.	16aaa-\ 16aaaa-	.
.	.	.	.	16aaa-\ 16aaaa-	.
.	.	.	.	16aaa-\ 16aaaa-	.
.	.	8r	.	16aaa-\ 16aaaa-	.
.	.	.	.	16aaa-\JJ 16aaaa-	.
!LO:LB:g=original	!	!LO:LB:g=original	!	!LO:LB:g=original	!
=65	=65	=65	=65	=65	=65
!	!	!	!	!LO:TX:b:i:t=rall.	!
4r	.	4.AA-\ 4.E- 4.A- 4.c	.	16aaa-\LL 16aaaa-	pp
.	.	.	.	16aaa-\ 16aaaa-	.
.	.	.	.	16aaa-\ 16aaaa-	.
.	.	.	.	16aaa-\ 16aaaa-	.
8r	.	.	.	16aaa-\ 16aaaa-	.
.	.	.	.	16aaa-\JJ 16aaaa-	.
2.CCC/ 2.DDD- 2.EEE-X 2.EEEn	.	4r	.	16aaa-\LL 16aaaa-	.
.	.	.	.	16aaa-\ 16aaaa-	.
.	.	.	.	16aaa-\ 16aaaa-	.
.	.	.	.	16aaa-\ 16aaaa-	.
.	.	8r	.	16aaa-\ 16aaaa-	.
.	.	.	.	16aaa-\JJ 16aaaa-	.
.	.	4.AA-\ 4.E- 4.A- 4.c	.	16aaa-\LL 16aaaa-	.
.	.	.	.	16aaa-\ 16aaaa-	.
.	.	.	.	16aaa-\ 16aaaa-	.
.	.	.	.	16aaa-\ 16aaaa-	.
.	.	.	.	16aaa-\ 16aaaa-	.
.	.	.	.	16aaa-\JJ 16aaaa-	.
4r	.	4r	.	16aaa-\LL 16aaaa-	.
.	.	.	.	16aaa-\ 16aaaa-	.
.	.	.	.	16aaa-\ 16aaaa-	.
.	.	.	.	16aaa-\ 16aaaa-	.
8r	.	8r	.	16aaa-\ 16aaaa-	.
.	.	.	.	16aaa-\JJ 16aaaa-	.
=66	=66	=66	=66	=66	=66
4r	.	4.AA-:\ 4.E-: 4.A-: 4.c:	.	4.aaa-\ 4.aaaa-	.
8r	.	.	.	.	.
*	*	*	*	*X8va	*
2.CCC/ 2.DDD- 2.EEE-X 2.EEEn	.	4r	.	4r	.
.	.	8r	.	8r	.
.	.	2.r	.	2.r	.
4.CCC/ 4.DDD- 4.EEE-X 4.EEEn	.	.	.	.	.
=67	=67	=67	=67	=67	=67
4r	.	1.r;	.	1.r;	.
8r	.	.	.	.	.
2.CCC/ 2.DDD- 2.EEE-X 2.EEEn	.	.	.	.	.
4r	.	.	.	.	.
8r	.	.	.	.	.
==	==	==	==	==	==
*-	*-	*-	*-	*-	*-
!!!RDF**kern: > = above
!!!RDF**kern: < = below
!!!system-decoration: [(s1,s2)]s3
!!!ENC: Filip Voros
!!!END: 2022-07-27
!!!ENC: Julita Ruszuk
!!!END: 2022-09-08
!!!YEC: Copyright 2022 Narodowy Instytut Fryderyka Chopina (https://polishscores.org)
!!!YEM: License CC-BY-4.0 (https://creativecommons.org/licenses/by/4.0)
